polaris-icons/icons/newicons/ArrowLeftMinor.svg

<svg width="20" height="20" viewBox="0 0 20 20" fill="none" xmlns="http://www.w3.org/2000/svg">
<path fill-rule="evenodd" clip-rule="evenodd" d="M17 10C17 10.4142 16.6642 10.75 16.25 10.75L5.64091 10.75L8.514 13.4538C8.81564 13.7377 8.83005 14.2124 8.54617 14.514C8.2623 14.8156 7.78765 14.83 7.486 14.5462L3.2356 10.5462C3.085 10.4044 2.9996 10.2068 2.9996 10C2.9996 9.79319 3.085 9.59556 3.2356 9.45383L7.486 5.45383C7.78765 5.16995 8.2623 5.18436 8.54617 5.486C8.83005 5.78765 8.81564 6.2623 8.514 6.54618L5.64091 9.25L16.25 9.25C16.6642 9.25 17 9.58579 17 10Z" fill="black"/>
</svg>

<svg viewBox="0 0 20 20" fill="none" xmlns="http://www.w3.org/2000/svg"><path fill-rule="evenodd" clip-rule="evenodd" d="M17 10a.75.75 0 0 1-.75.75h-10.61l2.874 2.704a.75.75 0 0 1-1.028 1.092l-4.25-4a.75.75 0 0 1 0-1.092l4.25-4a.75.75 0 1 1 1.028 1.092l-2.873 2.704h10.609a.75.75 0 0 1 .75.75Z" fill="#000"/></svg>
